cps (120/60/4)

hush

d1 $ stack [
                    up "[16 16 ~ 16 ~ 12 16 ~ 19 ~ ~ ~ 7 ~ ~ ~]" # s "arpy" # gain 1.1,
                    up "[6 6 ~ 6 ~ 6 6 ~ 11 ~ ~ ~ -5 ~ ~ ~]" # s "arpy" # gain 0.9,
                    up "[-10 -10 ~ -10 ~ -10 -10 ~ -5 ~ ~ ~ -17 ~ ~ ~]" # s "arpy" # gain 0.9
]
